src/components/icon/assets/deleted.svg

<?xml version="1.0" encoding="UTF-8"?>
<svg width="24px" height="24px" viewBox="0 0 24 24" version="1.1" xmlns="http://www.w3.org/2000/svg" xmlns:xlink="http://www.w3.org/1999/xlink">
    <!-- Generator: Sketch 60 (88103) - https://sketch.com -->
    <title>Delete</title>
    <desc>Created with Sketch.</desc>
    <g id="Delete" stroke="none" stroke-width="1" fill="none" fill-rule="evenodd">
        <path d="M7.71428571,16.4444444 C7.71428571,17.3035541 8.35387893,18 9.14285714,18 L14.8571429,18 C15.6461211,18 16.2857143,17.3035541 16.2857143,16.4444444 L16.2857143,7.11111111 L7.71428571,7.11111111 L7.71428571,16.4444444 M9.14285714,8.66666667 L14.8571429,8.66666667 L14.8571429,16.4444444 L9.14285714,16.4444444 L9.14285714,8.66666667 M14.5,4.77777778 L13.7857143,4 L10.2142857,4 L9.5,4.77777778 L7,4.77777778 L7,6.33333333 L17,6.33333333 L17,4.77777778 L14.5,4.77777778 Z" id="Shape" fill="#000000"></path>
    </g>
</svg>

<svg xmlns="http://www.w3.org/2000/svg" viewBox="0 0 24 24"><path d="M7.714 16.444c0 .86.64 1.556 1.429 1.556h5.714c.79 0 1.429-.696 1.429-1.556V7.111H7.714v9.333m1.429-7.777h5.714v7.777H9.143V8.667m5.357-3.89L13.786 4h-3.572l-.714.778H7v1.555h10V4.778h-2.5z" fill-rule="evenodd"/></svg>
